Papirus-nordic/32x32/places/user-red-desktop.svg

<svg xmlns="http://www.w3.org/2000/svg" width="32" height="32" version="1.1">
 <rect style="opacity:0.2" width="25" height="22" x="3" y="6" rx="1.25" ry="1.25"/>
 <path style="fill:#bf616a" d="M 3,7.9 3,25.75 C 3,26.4425 3.5575,27 4.25,27 l 22.5,0 C 27.4425,27 28,26.4425 28,25.75 L 28,7.9 Z"/>
 <path style="fill:#974a4d" d="M 4.25 5 C 3.5575 5 3 5.5575 3 6.25 L 3 8 L 28 8 L 28 6.25 C 28 5.5575 27.442 5 26.75 5 L 4.25 5 z"/>
 <path style="fill:#974a4d" d="M 10.5 24 C 9.669 24 9 24.669 9 25.5 L 9 27 L 22 27 L 22 25.5 C 22 24.669 21.331 24 20.5 24 L 10.5 24 z"/>
 <path style="opacity:0.1;fill:#ffffff" d="M 4.25 5 C 3.5575 5 3 5.5575 3 6.25 L 3 7.25 C 3 6.5575 3.5575 6 4.25 6 L 26.75 6 C 27.442 6 28 6.5575 28 7.25 L 28 6.25 C 28 5.5575 27.442 5 26.75 5 L 4.25 5 z"/>
</svg>

<svg xmlns="http://www.w3.org/2000/svg" width="32" height="32"><rect width="25" height="22" x="3" y="6" rx="1.25" ry="1.25" opacity=".2"/><path d="M3 7.9v17.85c0 .692.558 1.25 1.25 1.25h22.5c.692 0 1.25-.558 1.25-1.25V7.9z" fill="#bf616a"/><path d="M4.25 5C3.558 5 3 5.558 3 6.25V8h25V6.25C28 5.558 27.442 5 26.75 5H4.25zM10.5 24c-.831 0-1.5.669-1.5 1.5V27h13v-1.5c0-.831-.669-1.5-1.5-1.5h-10z" fill="#974a4d"/><path d="M4.25 5C3.558 5 3 5.558 3 6.25v1C3 6.558 3.558 6 4.25 6h22.5c.692 0 1.25.558 1.25 1.25v-1C28 5.558 27.442 5 26.75 5H4.25z" opacity=".1" fill="#fff"/></svg>
